!!!!SEGMENT: pl-gd--ee-1638--002-021_marenzio-luca--motettorum-pro-festis-totius-anni-in-festo-transfigurationis-domini-christus-iesus-splendor-patris.krn
!!!cenid: 15xx:1024
!!!COM: Marenzio, Luca
!!!COM-rismID:
!!!CDT: ~1553-1599/08/22
!!!CNT: Italian
!!!GTL: Motettorum pro festis totius anni
!!!OTL: In festo Transfigurationis Domini/Christus Iesus splendor patris
!!!OMV: 021
!!!PDT: 1588
!!!AGN:
!!!SMS-siglum: PL-GD
!!!SMS-shelfmark: Ee 1638
!!!SMS-shelfwork: 002-021 G
!!!SMS-variant:
!!!SMS-altvar:
!!!NIFC-rismSourceID: 990039238
!!!NIFC-islandoraID: pl-gd:57883
!!!URL-pdf-islandora: https://repozytorium.nifc.pl/islandora/object/pl-gd%3A57883/datastream/PDF/view
!!!URL-scan: https://polish.musicsources.pl/pl/lokalizacje/galeria/klocki-introligatorskie/655 @EN{Scan on Polish Music Herritage in Open Access Website} @PL{Skany w portalu Dziedzictwo Muzyki Polskiej w otwartym dostępie}
!!!ONB-nifc: UWAGA: Cantus: s. 626 (prawa), Altus: s. 474 (prawa), Tenor: s. 322 (prawa), Bassus: s. 170 (prawa)
!!!AIN: 1 alto 1 bass 1 soprn 1 tenor
!!!key:
**kern	**text	**kern	**text	**kern	**text	**kern	**text
*part4	*part4	*part3	*part3	*part2	*part2	*part1	*part1
*staff4	*staff4	*staff3	*staff3	*staff2	*staff2	*staff1	*staff1
*I"BASSVS	*	*I"TENOR	*	*I"ALTVS	*	*I"CANTVS	*
*I'B	*	*I'T	*	*I'A	*	*I'S	*
*ICvox	*	*ICvox	*	*ICvox	*	*ICvox	*
*Ibass	*	*Itenor	*	*Ialto	*	*Isoprn	*
*clefF3	*	*clefC3	*	*clefC2	*	*clefG2	*
*k[b-]	*	*k[b-]	*	*k[b-]	*	*k[b-]	*
*F:	*	*F:	*	*F:	*	*F:	*
*M2/1	*	*M2/1	*	*M2/1	*	*M2/1	*
*met(C)	*	*met(C|)	*	*met(C|)	*	*met(C|)	*
=1-	=1-	=1-	=1-	=1-	=1-	=1-	=1-
!LO:TX:t=P:problem: w źródle zapisany podwójnie bemol: BB- i B-	!	!	!	!LO:TX:t=P:problem: w źródle zapisany podwójnie bemol: B- i b-	!	!	!
0r	.	00r	.	00r	.	1bny	CHriſ-
.	.	.	.	.	.	1cc	-tus
=2-	=2-	=2-	=2-	=2-	=2-	=2-	=2-
1B-	CHriſ-	.	.	.	.	1dd	Ie-
1A	-tus	.	.	.	.	1cc	-ſus
=3-	=3-	=3-	=3-	=3-	=3-	=3-	=3-
1G	Ie-	1B-	CHriſ-	0r	.	0r	.
1F	-ſus	1c	-tus	.	.	.	.
=4-	=4-	=4-	=4-	=4-	=4-	=4-	=4-
0r	.	1d	Ie-	1f	CHriſ-	2r	.
.	.	.	.	.	.	1ff	ſple(n)-
.	.	1c	-ſus	1g	-tus	.	.
.	.	.	.	.	.	2ee\	-dor
=5-	=5-	=5-	=5-	=5-	=5-	=5-	=5-
*	*ij	*	*	*	*	*	*
1F	Chri-	2f\	ſple(n)-	1a	Ie-	4dd\	pa-
.	.	.	.	.	.	4cc\	.
.	.	2e\	-dor	.	.	2.cc\	.
1G	-stus	1d	pa-	1g	-ſus	.	.
.	.	.	.	.	.	8b\	.
.	.	.	.	.	.	8a/	.
!	!	!	!	!	!	!LO:N:acc=#	!
.	.	.	.	.	.	2bn/	.
=6-	=6-	=6-	=6-	=6-	=6-	=6-	=6-
1A	Ie-	1c	-tris	2r	.	1cc	-tris
.	.	.	.	1f	ſple(n)-	.	.
1G	-sus	1r	.	.	.	1r	.
.	.	.	.	2e/	-dor	.	.
*	*Xij	*	*	*	*	*	*
=7-	=7-	=7-	=7-	=7-	=7-	=7-	=7-
2F/	ſple(n)-	0r	.	4d/	pa-	1r	.
.	.	.	.	4c/	.	.	.
2E/	-dor	.	.	2.c/	.	.	.
1D	pa-	.	.	.	.	1ff	Chriſ-
.	.	.	.	8B-/	.	.	.
.	.	.	.	8A/	.	.	.
!	!	!	!	!LO:N:acc=#	!	!	!
.	.	.	.	2Bn/	.	.	.
=8-	=8-	=8-	=8-	=8-	=8-	=8-	=8-
!	!	!	!	!	!	!LO:SIC:v:t=custos dd	!
4C/	-tris	1r	.	1c	-tris	1ee	-tus
4D/	.	.	.	.	.	.	.
4E/	.	.	.	.	.	.	.
4F/	.	.	.	.	.	.	.
!	!	!	!	!	!	!LO:LB:g=original	!
1G	.	1B-	Chriſ-	2r	.	1dd	Ie-
*	*	*	*	*	*ij	*	*
.	.	.	.	1b-\	Chris-	.	.
=9-	=9-	=9-	=9-	=9-	=9-	=9-	=9-
1r	.	1F	-tus	.	.	1cc	-ſus
!	!	!	!	!LO:SIC:v:t=custos g	!	!	!
.	.	.	.	2a\	-tus	.	.
!LO:SIC:v:t=custos c	!	!	!	!LO:LB:g=original	!	!	!
1B-	Chri-	1r	.	4g\	Ie-	2b-y/	ſplen-
.	.	.	.	4f\	-sus	.	.
.	.	.	.	2.f\	ſplen-	2a/	-dor
!LO:LB:g=original	!	!	!	!	!	!	!
=10-	=10-	=10-	=10-	=10-	=10-	=10-	=10-
1c	-ſtus	00r	.	.	.	1g	pa-
.	.	.	.	8e/	-dor	.	.
.	.	.	.	8d/	pa-	.	.
.	.	.	.	2e/	.	.	.
1d	Ie-	.	.	1f	-tris	2f/	-tris
.	.	.	.	.	.	1bny\	ſplen-
=11-	=11-	=11-	=11-	=11-	=11-	=11-	=11-
1c	-ſus	.	.	0r	.	.	.
.	.	.	.	.	.	2a/	-dor
2B-\	ſple(n)-	.	.	.	.	4g/	pa-
.	.	.	.	.	.	4f/	.
2A\	-dor	.	.	.	.	2.f/	.
=12-	=12-	=12-	=12-	=12-	=12-	=12-	=12-
1G	pa-	1B-	Chriſ-	2r	.	.	.
.	.	.	.	.	.	8e/	.
.	.	.	.	.	.	8d/	.
.	.	.	.	1b-	Chri-	2e/	.
!	!	!LO:SIC:v:t=custos d	!	!	!	!	!
1F	-tris	1c	-tus	.	.	1f	-tris
.	.	.	.	2a\	-stus	.	.
!	!	!LO:LB:g=original	!	!	!	!	!
=13-	=13-	=13-	=13-	=13-	=13-	=13-	=13-
2.BB-/	er	1d	ie-	4g\	Ie-	0r	.
.	.	.	.	4f\	-sus	.	.
.	.	.	.	2.f\	ſplen-	.	.
4BB-/	fi-	.	.	.	.	.	.
1C	-gu-	1c	-ſus	.	.	.	.
.	.	.	.	8e/	.	.	.
.	.	.	.	8d/	.	.	.
.	.	.	.	2e/	-dor	.	.
=14-	=14-	=14-	=14-	=14-	=14-	=14-	=14-
2D/	-ra	2B-/	ſplen-	4f\	pa-	2.f/	er
.	.	.	.	4e/	.	.	.
2F/	ſub-	2A/	-dor	4d/	.	.	.
.	.	.	.	4c/	.	4f/	fi-
2.B-\	-ſtan-	1G	pa-	1d	-tris	1g	-gu-
4B-\	-ti-	.	.	.	.	.	.
*	*	*	*	*	*Xij	*	*
=15-	=15-	=15-	=15-	=15-	=15-	=15-	=15-
2c\	-æ	1F	-tris	1r	.	1a	-ra
2.d\	e-	.	.	.	.	.	.
.	.	1r	.	2.f\	er	2a/	ſub-
4c\	.	.	.	.	.	.	.
4B-\	.	.	.	.	.	2.dd\	-ſtan-
4A\	-ius	.	.	4f\	fi-	.	.
=16-	=16-	=16-	=16-	=16-	=16-	=16-	=16-
!	!	!	!	!LO:SIC:v:t=custos a	!	!	!
1G	.	2.B-/	er	1g	-gu-	.	.
.	.	.	.	.	.	4dd\	-ti-
!	!	!	!	!	!	!LO:SIC:v:t=custos ff	!
.	.	.	.	.	.	2ee\	-æ
.	.	4B-/	fi-	.	.	.	.
!	!	!	!	!LO:LB:g=original	!	!LO:LB:g=original	!
1F	.	1c	-gu-	1a	-ra	2.ff\	e-
.	.	.	.	.	.	4ee\	.
=17-	=17-	=17-	=17-	=17-	=17-	=17-	=17-
0r	.	2d\	-ra	2f\	ſub-	1dd	.
.	.	2B-/	ſub-	2.b-\	-ſtan-	.	.
.	.	2.f\	-ſtan-	.	.	1cc	-ius
.	.	.	.	4a\	-ti-	.	.
.	.	.	.	2a\	-æ	.	.
.	.	4f\	-ti-	.	.	.	.
=18-	=18-	=18-	=18-	=18-	=18-	=18-	=18-
1r	.	2g\	-æ	4b-\	e-	2r	.
.	.	.	.	8a\	.	.	.
.	.	.	.	8g\	.	.	.
*	*	*	*	*	*	*	*ij
.	.	2.a\	e-	4f\	.	2.cc\	er
.	.	.	.	4g\	.	.	.
2.F/	er	.	.	1a	.	.	.
.	.	4g\	.	.	.	4cc\	.
.	.	4f\	.	.	.	1dd\	fi-
4F/	fi-	4e\	.	.	.	.	.
=19-	=19-	=19-	=19-	=19-	=19-	=19-	=19-
1G	-gu-	1d	.	1b-	-ius	.	.
.	.	.	.	.	.	2gg\	-gu-
!LO:SIC:v:t=custos F	!	!	!	!	!	!	!
2A\	-ra	2c/	-ius	2r	.	2ee\	-ra
!LO:LB:g=original	!	!LO:SIC:v:t=custos d	!	!	!	!	!
*	*	*	*	*	*ij	*	*
2F/	ſub-	2c/	ſub-	2.f\	sub-	1ff\	.
!	!	!LO:LB:g=original	!	!	!	!	!
=20-	=20-	=20-	=20-	=20-	=20-	=20-	=20-
2.B-\	-ſtan-	2.d\	-ſtan-	.	.	.	.
.	.	.	.	4f\	-stan-	.	.
.	.	.	.	2g\	-ti-	2dd\	sub-
4B-\	-ti-	4d\	-ti-	.	.	.	.
2c\	-æ	2e\	-æ	1a	-æ	2cc\	.
*	*	*	*	*	*	*lig	*
2.d\	e-	2.f\	e-	.	.	1a/	-stan-
=21-	=21-	=21-	=21-	=21-	=21-	=21-	=21-
.	.	.	.	1f	e-	.	.
4c\	.	4e\	.	.	.	.	.
*	*	*	*	*	*	*col	*
4B-\	.	4d\	.	.	.	2.b-\	.
4A\	.	4c/	.	.	.	.	.
1G	.	1B-	.	2.b-\	.	.	.
*	*	*	*	*	*	*Xlig	*
.	.	.	.	.	.	4cc\	.
*	*	*	*	*	*	*Xcol	*
.	.	.	.	.	.	4dd\	-ti-
.	.	.	.	4b-\	.	4ee\	.
=22-	=22-	=22-	=22-	=22-	=22-	=22-	=22-
0F	-ius	1A	-ius	2cc\	.	4ff\	-æ
.	.	.	.	.	.	4ee\	.
.	.	.	.	2.a\	.	4dd\	.
.	.	.	.	.	.	4cc\	.
.	.	2r	.	.	.	4dd\	.
.	.	.	.	4g\	.	4cc\	.
.	.	1F/	por-	4f\	.	2.cc\	e-
!	!	!	!	!LO:SIC:v:t=custos d	!	!	!
.	.	.	.	4e\	.	.	.
!	!	!	!	!LO:LB:g=original	!	!	!
=23-	=23-	=23-	=23-	=23-	=23-	=23-	=23-
1r	.	.	.	1d	.	.	.
.	.	.	.	.	.	8bny/	.
.	.	.	.	.	.	8a/	.
!	!	!	!	!	!	!LO:SIC:v:t=custos cc	!
!	!	!	!	!	!	!LO:N:acc=#	!
.	.	2G/	-tas	.	.	2bn/	.
!	!	!	!	!	!	!LO:LB:g=original	!
2r	.	2.A/	om-	1c	-ius	1cc	-ius
1F\	por-	.	.	.	.	.	.
.	.	4A/	-ni-	.	.	.	.
*	*	*	*	*	*Xij	*	*Xij
=24-	=24-	=24-	=24-	=24-	=24-	=24-	=24-
.	.	2A/	-a	0r	.	0r	.
2G\	-tans	1d	ver-	.	.	.	.
2.A\	om-	.	.	.	.	.	.
.	.	2c/	-bo	.	.	.	.
4A\	-ni-	.	.	.	.	.	.
=25-	=25-	=25-	=25-	=25-	=25-	=25-	=25-
2A\	-a	2e\	vir-	1r	.	1a	por-
1d	ver-	1f	-tu-	.	.	.	.
.	.	.	.	2r	.	2b-y/	-tans
2c\	-bo	2g\	-tis	1e\	por-	2.cc\	om-
=26-	=26-	=26-	=26-	=26-	=26-	=26-	=26-
1A	vir-	1a	ſu-	.	.	.	.
.	.	.	.	.	.	4cc\	-ni-
.	.	.	.	2f\	-tas	2a/	-a
1B-	-tu-	1d	-æ	2.g\	om-	1dd	ver-
.	.	.	.	4g\	-ni-	.	.
=27-	=27-	=27-	=27-	=27-	=27-	=27-	=27-
2c\	-tis	2r	.	2g\	-a	2cc\	-bo
!LO:SIC:v:t=custos G	!	!	!	!	!	!	!
1F	vir-	2c/	pur-	1cc	ver-	1a	vir-
.	.	1d	-ga-	.	.	.	.
!LO:LB:g=original	!	!	!	!	!	!	!
1G\	-tu-	.	.	2b-\	-bo	1b-\	-tu-
=28-	=28-	=28-	=28-	=28-	=28-	=28-	=28-
.	.	2d\	-ti-	2g\	vir-	.	.
!	!	!LO:SIC:v:t=custos e	!	!	!	!	!
2F/	-tis	1f	-o-	1a	-tu-	2cc\	-tis
1D	ſu-	.	.	.	.	1dd	ſu-
!	!	!LO:LB:g=original	!	!LO:N:acc=#	!	!	!
.	.	4e\	.	2bn\	-tis	.	.
.	.	4d\	.	.	.	.	.
=29-	=29-	=29-	=29-	=29-	=29-	=29-	=29-
1C	-ae	2e\	.	1cc	ſu-	2g/	-ae
.	.	2e\	-nem	.	.	1cc	v(i)r-
1r	.	2.f\	pec-	0a	-æ	.	.
.	.	.	.	.	.	2.dd\	-tu-
.	.	4f\	-ca-	.	.	.	.
=30-	=30-	=30-	=30-	=30-	=30-	=30-	=30-
1F	pur-	2f\	-to-	.	.	.	.
.	.	.	.	.	.	4cc\	-tis
.	.	2e\	-rum	.	.	1cc	ſu-
1G	-ga-	1.d	fa-	1r	.	.	.
.	.	.	.	.	.	4bny/	.
.	.	.	.	.	.	4a/	.
=31-	=31-	=31-	=31-	=31-	=31-	=31-	=31-
2G\	-ti-	.	.	00r	.	4bny/	.
.	.	.	.	.	.	8a/	.
.	.	.	.	.	.	8g/	.
1B-	-o-	2d\	-ci-	.	.	2f/	.
!	!	!	!	!	!	!LO:SIC:v:t=custos cc	!
.	.	1c	-ens	.	.	1f	-ae
4A\	.	.	.	.	.	.	.
4G\	.	.	.	.	.	.	.
!	!	!	!	!	!	!LO:LB:g=original	!
=32-	=32-	=32-	=32-	=32-	=32-	=32-	=32-
2A\	.	2F/	in	.	.	2r	.
2A\	-nem	1f	mon-	.	.	2cc\	pu-
2.B-\	pec-	.	.	.	.	1dd	-ga-
.	.	1f\	-te	.	.	.	.
4B-\	-ca-	.	.	.	.	.	.
=33-	=33-	=33-	=33-	=33-	=33-	=33-	=33-
2B-\	-to-	.	.	1f	pur-	2dd\	-ti-
2A\	-rum	2F/	in	.	.	1ff	-o-
1.G	fa-	0B-	mon-	1g	-ga-	.	.
.	.	.	.	.	.	4ee\	.
.	.	.	.	.	.	4dd\	.
=34-	=34-	=34-	=34-	=34-	=34-	=34-	=34-
!	!	!	!	!LO:SIC:v:t=custos b	!	!	!
.	.	.	.	2g\	-ti-	2ee\	.
!	!	!	!	!LO:LB:g=original	!	!	!
2G\	-ci-	.	.	1b-y	-o-	2ee\	-nem
0F	-ens	1c	-te	.	.	2ff\	pec-
.	.	.	.	4a\	.	2ff\	-ca-
.	.	.	.	4g\	.	.	.
=35-	=35-	=35-	=35-	=35-	=35-	=35-	=35-
.	.	2r	.	2a\	.	2ff\	-to-
.	.	2c/	pur-	2a\	-nem	2ee\	-rum
!LO:SIC:v:t=custos C	!	!	!	!	!	!	!
0BB-	pur-	1d	-ga-	2.f\	pec-	1.dd	fa-
.	.	.	.	4f\	-ca-	.	.
!LO:LB:g=original	!	!	!	!	!	!	!
=36-	=36-	=36-	=36-	=36-	=36-	=36-	=36-
.	.	2d\	-ti-	2b-\	-to-	.	.
!	!	!LO:SIC:v:t=custos e	!	!	!	!	!
.	.	1f	-o-	2a\	-rum	2dd\	-ci-
1C	-ga-	.	.	0g	fa-	2cc\	-ens
!	!	!LO:LB:g=original	!	!	!	!	!
.	.	4e-X\	.	.	.	2g/	in
.	.	4d\	.	.	.	.	.
=37-	=37-	=37-	=37-	=37-	=37-	=37-	=37-
2C/	-ti-	2.e-X\	.	.	.	1gg	mon-
1E-X	-o-	.	.	.	.	.	.
.	.	8d\	.	.	.	.	.
.	.	8c\	.	.	.	.	.
.	.	2B-/	.	1g	-ci-	1gg	-te
4D/	.	2c/	-nem	.	.	.	.
4C/	.	.	.	.	.	.	.
=38-	=38-	=38-	=38-	=38-	=38-	=38-	=38-
2D/	.	2A/	pec-	1f	-ens	0r	.
2D/	-nem	1B-	-ca-	.	.	.	.
2.E-X/	pec-	.	.	2.g\	pec-	.	.
.	.	2c/	-to-	.	.	.	.
4E-/	-ca-	.	.	4g\	-ca-	.	.
=39-	=39-	=39-	=39-	=39-	=39-	=39-	=39-
2E-yX/	-to-	2G/	-rum	2g\	-to-	1r	.
2D/	-rum	1B-	fa-	2f\	-rum	.	.
1.C	fa-	.	.	1.e-X	fa-	0cc	in
.	.	4A/	.	.	.	.	.
.	.	4G/	.	.	.	.	.
=40-	=40-	=40-	=40-	=40-	=40-	=40-	=40-
.	.	2.A/	.	.	.	.	.
2C/	-ci-	.	.	2e-yX\	-ci-	.	.
.	.	4A/	-ci-	.	.	.	.
2BB-/	-ens	2.B-/	-ens	1d	-ens	1ff	mon-
2BB-/	in	.	.	.	.	.	.
.	.	4c/	.	.	.	.	.
=41-	=41-	=41-	=41-	=41-	=41-	=41-	=41-
1B-	mon-	1d	.	2r	.	1ff	-te
.	.	.	.	2f\	in	.	.
!	!	!	!	!	!	!LO:SIC:v:t=custos ff	!
2B-\	-te	2r	.	1b-	mon-	1dd	ex-
2G\	ex-	1B-/	in	.	.	.	.
!	!	!	!	!	!	!LO:LB:g=original	!
=42-	=42-	=42-	=42-	=42-	=42-	=42-	=42-
!LO:SIC:v:t=custos c	!	!	!	!	!	!	!
1d	-cel-	.	.	2b-\	-te	1ff	-cel-
.	.	1f	mon-	2a\	ex-	.	.
!LO:LB:g=original	!	!	!	!	!	!	!
1c	-ſo	.	.	0cc	-cel-	2.gg\	-ſo
.	.	2eny\	-te	.	.	.	.
.	.	.	.	.	.	4ff\	.
=43-	=43-	=43-	=43-	=43-	=43-	=43-	=43-
2r	.	2c/	ex-	.	.	0ee	.
2C/	in	2.g\	-cel-	.	.	.	.
!	!	!	!	!LO:SIC:v:t=custos b	!	!	!
1c	mon-	.	.	1g	-ſo	.	.
!	!	!LO:SIC:v:t=custos e	!	!	!	!	!
.	.	4f\	.	.	.	.	.
!	!	!LO:LB:g=original	!	!	!	!	!
.	.	4e\	.	.	.	.	.
.	.	4d\	.	.	.	.	.
!	!	!	!	!LO:LB:g=original	!	!	!
=44-	=44-	=44-	=44-	=44-	=44-	=44-	=44-
2c\	-te	4e\	.	2r	.	2r	.
.	.	4f\	.	.	.	.	.
2G\	ex-	4g\	.	2.b-\	glo-	2.dd\	glo-
.	.	4d\	.	.	.	.	.
1d	-cel-	1.f	.	.	.	.	.
.	.	.	.	8a\	.	8cc\	.
.	.	.	.	8g\	.	8b\	.
.	.	.	.	4f\	.	4a/	.
.	.	.	.	4g\	.	4b-/	.
=45-	=45-	=45-	=45-	=45-	=45-	=45-	=45-
1c	-ſo	.	.	4a\	.	4cc\	.
.	.	.	.	8g\	.	4dd\	.
.	.	.	.	8f\	.	.	.
.	.	2e\	-ſo	4g\	.	4ee\	.
.	.	.	.	4a\	.	4cc\	.
1r	.	1r	.	2b-\	.	4dd\	.
.	.	.	.	.	.	4ee\	.
.	.	.	.	2a\	-rio-	1ff\	.
=46-	=46-	=46-	=46-	=46-	=46-	=46-	=46-
0r	.	00r	.	1g	-ſus	.	.
.	.	.	.	.	.	2ee\	-rio-
.	.	.	.	2f\	ap-	2dd\	-ſus
.	.	.	.	2b-\	-pa-	2cc\	.
=47-	=47-	=47-	=47-	=47-	=47-	=47-	=47-
2r	.	.	.	2g\	-re-	2b-/	ap-
*	*ij	*	*	*	*	*	*
2F/	in	.	.	1f	.	2a/	-pa-
1c	mon-	.	.	.	.	2.g/	-re-
.	.	.	.	4eny/	.	.	.
!	!	!	!	!	!	!LO:SIC:v:t=custos g	!
.	.	.	.	4d/	.	4f/	.
!	!	!	!	!	!	!LO:LB:g=original	!
=48-	=48-	=48-	=48-	=48-	=48-	=48-	=48-
2c\	-te	0r	.	4eny/	.	4g/	.
.	.	.	.	4f\	.	4a/	.
2G\	ex-	.	.	2.g\	.	2.bny/	.
1d	-cel-	.	.	.	.	.	.
.	.	.	.	4f\	.	4a/	.
.	.	.	.	2.f\	.	4a/	.
.	.	.	.	.	.	8g/	.
.	.	.	.	.	.	8f/	.
=49-	=49-	=49-	=49-	=49-	=49-	=49-	=49-
1c	-so	1r	.	.	.	1g	.
*	*Xij	*	*	*	*	*	*
.	.	.	.	8eny/	.	.	.
!	!	!	!	!LO:SIC:v:t=custos e	!	!	!
.	.	.	.	8d/	.	.	.
!	!	!	!	!LO:LB:g=original	!	!	!
.	.	.	.	2e/	.	.	.
2r	.	2r	.	0f	-re	1f	-re
2.B-\	glo-	2.d\	glo-	.	.	.	.
=50-	=50-	=50-	=50-	=50-	=50-	=50-	=50-
.	.	.	.	.	.	00r	.
8A\	.	8c/	.	.	.	.	.
8G\	.	8B-/	.	.	.	.	.
!LO:SIC:v:t=custos G	!	!	!	!	!	!	!
4F/	.	4A/	.	.	.	.	.
!LO:LB:g=original	!	!	!	!	!	!	!
4G\	.	4B-/	.	.	.	.	.
4A\	.	4c/	.	1r	.	.	.
8G\	.	4d\	.	.	.	.	.
8F\	.	.	.	.	.	.	.
4G\	.	4e\	.	.	.	.	.
4A\	.	4c\	.	.	.	.	.
=51-	=51-	=51-	=51-	=51-	=51-	=51-	=51-
2B-\	.	4d\	.	00r	.	.	.
.	.	4e\	.	.	.	.	.
2A\	-rio-	1f	.	.	.	.	.
1G	-ſus	.	.	.	.	.	.
.	.	2e-\	-ri-	.	.	.	.
=52-	=52-	=52-	=52-	=52-	=52-	=52-	=52-
2F/	ap-	2d\	-o-	.	.	0r	.
2A\	-pa-	2c/	-ſus	.	.	.	.
2G\	-re-	2B-/	ap-	.	.	.	.
2.F/	.	2A/	-pa-	.	.	.	.
=53-	=53-	=53-	=53-	=53-	=53-	=53-	=53-
!	!	!LO:SIC:v:t=custos A	!	!	!	!	!
.	.	1G	-re-	1r	.	2r	.
8Eny/	.	.	.	.	.	.	.
8D/	.	.	.	.	.	.	.
2E/	.	.	.	.	.	1cc	dig-
!	!	!LO:LB:g=original	!	!	!	!	!
2F/	-re	2A/	-re	1a	di-	.	.
2D/	dig-	2d\	di-	.	.	2.ff\	-na-
=54-	=54-	=54-	=54-	=54-	=54-	=54-	=54-
1F	-na-	2c/	-gna-	1.a	-gna-	.	.
.	.	.	.	.	.	4ee\	.
.	.	2f\	-tus	.	.	1dd	.
1A	-tus	1eny	eſt	.	.	.	.
.	.	.	.	2e/	-tus	2cc\	-tus
=55-	=55-	=55-	=55-	=55-	=55-	=55-	=55-
1D	eſt	2r	.	2d/	eſt	2.ff\	eſt
.	.	2.f\	glo-	2.a\	glo-	.	.
.	.	.	.	.	.	8ee\	.
.	.	.	.	.	.	8dd\	.
1r	.	.	.	.	.	1cc	.
.	.	8e\	.	8g\	.	.	.
.	.	8d\	.	8f\	.	.	.
.	.	4c\	.	4e/	.	.	.
.	.	4d\	.	4f\	.	.	.
=56-	=56-	=56-	=56-	=56-	=56-	=56-	=56-
!LO:SIC:v:t=custos F	!	!	!	!	!	!	!
1r	.	4eny\	.	4g\	.	2r	.
.	.	8d\	.	4a\	.	.	.
.	.	8c\	.	.	.	.	.
.	.	4d\	.	4b-\	.	2.dd\	glo-
.	.	4eny\	.	4g\	.	.	.
!LO:LB:g=original	!	!	!	!	!	!	!
1F	di-	2f\	.	2a\	.	.	.
.	.	.	.	.	.	8cc\	.
!	!	!	!	!	!	!LO:SIC:v:t=custos a	!
.	.	.	.	.	.	8b\	.
!	!	!	!	!	!	!LO:LB:g=original	!
.	.	2c/	-rio-	4cc\	-ri-	4a/	.
.	.	.	.	4bny\	.	4b/	.
=57-	=57-	=57-	=57-	=57-	=57-	=57-	=57-
1A	-gna-	0c	-ſus	4a\	.	2cc\	.
.	.	.	.	4g\	.	.	.
.	.	.	.	1f	.	2a/	-ri-
1c	-tus	.	.	.	.	1g	-o-
.	.	.	.	2e/	-o-	.	.
=58-	=58-	=58-	=58-	=58-	=58-	=58-	=58-
1F	eſt	2c/	ap-	2f\	-ſus	2a/	-ſus
!	!	!	!	!LO:SIC:v:t=custos a	!	!	!
.	.	1d	-pa-	2f\	ap-	1ff	ap-
!	!	!	!	!LO:LB:g=original	!	!	!
1r	.	.	.	2a\	-pa-	.	.
!	!	!LO:SIC:v:t=custos B	!	!	!	!	!
.	.	2c/	-re-	2.a\	-re-	2ee\	-pa-
!	!	!LO:LB:g=original	!	!	!	!	!
=59-	=59-	=59-	=59-	=59-	=59-	=59-	=59-
1r	.	1B-	-re	.	.	1dd	-re-
.	.	.	.	8g\	.	.	.
.	.	.	.	8f\	.	.	.
.	.	.	.	2g\	.	.	.
*	*ij	*	*	*	*	*	*
1F	di-	2A/	.	2a\	-re	0cc	-re
.	.	1a\	di-	2f\	di-	.	.
=60-	=60-	=60-	=60-	=60-	=60-	=60-	=60-
1A	-gna-	.	.	2e/	-gna-	.	.
.	.	1f	-gna-	2a\	-tus	.	.
1c	-tus	.	.	1g	eſt	2r	.
.	.	2e\	-tus	.	.	1cc\	dig-
=61-	=61-	=61-	=61-	=61-	=61-	=61-	=61-
1F	est	2f\	eſt	2r	.	.	.
.	.	2c/	di-	2a\	di-	2.ff\	-na-
1BB-	di-	2.d\	-gna-	0f	-gna-	.	.
.	.	.	.	.	.	4ee\	.
.	.	.	.	.	.	2.dd\	.
.	.	4c/	.	.	.	.	.
=62-	=62-	=62-	=62-	=62-	=62-	=62-	=62-
1D	-gna-	4B-/	.	.	.	.	.
.	.	4A/	.	.	.	4cc\	.
.	.	2d\	.	.	.	1b-y	.
1F	-tus	1c	-tus	1f	-tus	.	.
.	.	.	.	.	.	2a/	-tus
=63-	=63-	=63-	=63-	=63-	=63-	=63-	=63-
00BB-	est	00B-	eſt.	00f	eſt.	00b-	eſt.
==	==	==	==	==	==	==	==
*-	*-	*-	*-	*-	*-	*-	*-
!!!system-decoration: [(s1,s2,s3,s4)]
!!!ENC: Andrzej Gręziak
!!!END: 2022-07-02
!!!ENC: Natalia Wrzos
!!!END: 2022-07-09
